X:1
T:Title
%%score { ( 1 3 ) | 2 }
L:1/8
M:4/4
K:Bb
V:1 treble nm="Grand Piano"
V:3 treble 
V:2 bass 
V:1
 z4 z2[Q:1/4=92] [DF][CE] | [B,D]>[DF] [Fd]>[Ec] [DB]2 [DB][B,FA] | %2
[M:3/4] [B,EG]>[B,GB] [B,FA]>[B,EG] [B,DF]2 |[M:1/4] [B,DF][B,DF] | %4
[M:4/4] [B,FB]>[CFA] [DFB]>[FAc] dBed |[M:3/4] cc BB c2 |[M:1/4] cc |[M:4/4] d>c d>e fdcc | %8
[M:7/8] BB[Gc] [Gc] [^Fd]3 |[M:1/4] [Fd][Fd] |[M:4/4] [Ge]>[Ge] c>c dd[Ge][Gc] | %11
[M:7/8] BBA c [DFB]3 |[M:1/4] FF |[M:4/4] [DFB]>[CFA] [DFB]>[EFc] [DFB]2 [B,FB]c | %14
[M:3/4] d>e d<.c B<.F |[M:1/4] FF |[M:4/4] G>[FA] [GB]>[Ec] [EB][FB][EA][DB] |[M:3/4] z2 z2 c2 | %18
[M:1/4] B[Ec] |[M:4/4] [Fd]>[Ge] [Fd]>[Ec] [Ec][DB][DB][FA] |[M:3/4] [EG]>[FA] [GB]>[EG] [EG][DF] | %21
[M:1/4] [B,D][DF] |[M:4/4] B>B B>B c[Ge][Gd][Gc] |[M:7/8] B>BA>A [DFB]3 |] %24
V:2
 z4 z2 [B,,B,][B,,B,] | [B,,F,]>[B,,B,] [B,,B,]>[B,,B,] [B,,B,]2 [B,,B,]D, | %2
[M:3/4] E,>E, E,>E, B,,2 |[M:1/4] B,,B,, |[M:4/4] D,>C, B,,>F,[K:treble] [B,FB][DF][CFA][B,FB] | %5
[M:3/4] [A,F][A,F] [G,C=E][G,CE] [F,A,F]2 |[M:1/4] [F,A,F][F,A,F] | %7
[M:4/4] [B,F]>[A,CF] [B,F]>[B,CF] [B,DF][B,F][K:bass][F,A,E][F,A,E] | %8
[M:7/8] [G,B,D][G,B,D][E,G,] [E,G,] [D,A,]3 |[M:1/4] [D,A,][D,A,] | %10
[M:4/4] [C,C]>[C,C][K:treble] [F,A,F]>[F,A,F] [B,F][B,_A][K:bass][E,C][E,E] | %11
[M:7/8] [F,DF][F,DF][F,CF] [F,EF] B,,3 |[M:1/4] F,F, | %13
[M:4/4] B,,>B,, B,,>B,, =B,,2 D,[K:treble][F,A,F] | %14
[M:3/4] [B,F]>[B,G] [B,F]<.[B,E][K:bass] [B,D]<.[B,D] |[M:1/4] [B,,B,][B,,B,] | %16
[M:4/4] [E,B,E]>[E,B,] [E,B,]>[E,G,] [E,G,][D,B,][C,F,][B,,F,] | %17
[M:3/4] [F,A,F]>[F,G,F] [F,A,F]>[F,B,F] .[F,A,F]2 |[M:1/4] [D,B,D][C,A,] | %19
[M:4/4] [B,,B,]>[B,,B,] [B,,B,]>[B,,F,] [B,,F,][B,,F,][B,,B,][D,B,] | %20
[M:3/4] [E,B,]>[E,B,] [E,B,]>[E,B,] [B,,B,][B,,B,] |[M:1/4] [B,,F,][B,,B,] | %22
[M:4/4] [F,B,D]>[G,B,D] [G,B,D]>[G,B,D] [E,G,E][C,C][D,=B,][D,C] | %23
[M:7/8] [F,DF]>[F,DF][F,CF]>[F,CF] B,,3 |] %24
V:3
 x8 | x8 |[M:3/4] x6 |[M:1/4] x2 |[M:4/4] x8 |[M:3/4] x6 |[M:1/4] x2 |[M:4/4] x8 |[M:7/8] x7 | %9
[M:1/4] x2 |[M:4/4] x8 |[M:7/8] x7 |[M:1/4] x2 |[M:4/4] x8 |[M:3/4] x6 |[M:1/4] x2 |[M:4/4] x8 | %17
[M:3/4] c>B c>d z E, |[M:1/4] x2 |[M:4/4] x8 |[M:3/4] x6 |[M:1/4] x2 |[M:4/4] x8 |[M:7/8] x7 |] %24

